svg/device/plugin_line.svg

<?xml version="1.0" encoding="UTF-8"?>
<svg width="24px" height="24px" viewBox="0 0 24 24" version="1.1" xmlns="http://www.w3.org/2000/svg" xmlns:xlink="http://www.w3.org/1999/xlink">
    <title>plugin_line</title>
    <g id="页面-1" stroke="none" stroke-width="1" fill="none" fill-rule="evenodd">
        <g id="Device" transform="translate(-384.000000, -192.000000)">
            <g id="plugin_line" transform="translate(384.000000, 192.000000)">
                 <path d="M24,0 L24,24 L0,24 L0,0 L24,0 Z M12.5934901,23.257841 L12.5819402,23.2595131 L12.5108777,23.2950439 L12.4918791,23.2987469 L12.4918791,23.2987469 L12.4767152,23.2950439 L12.4056548,23.2595131 C12.3958229,23.2563662 12.3870493,23.2590235 12.3821421,23.2649074 L12.3780323,23.275831 L12.360941,23.7031097 L12.3658947,23.7234994 L12.3769048,23.7357139 L12.4804777,23.8096931 L12.4953491,23.8136134 L12.4953491,23.8136134 L12.5071152,23.8096931 L12.6106902,23.7357139 L12.6232938,23.7196733 L12.6232938,23.7196733 L12.6266527,23.7031097 L12.609561,23.275831 C12.6075724,23.2657013 12.6010112,23.2592993 12.5934901,23.257841 L12.5934901,23.257841 Z M12.8583906,23.1452862 L12.8445485,23.1473072 L12.6598443,23.2396597 L12.6498822,23.2499052 L12.6498822,23.2499052 L12.6471943,23.2611114 L12.6650943,23.6906389 L12.6699349,23.7034178 L12.6699349,23.7034178 L12.678386,23.7104931 L12.8793402,23.8032389 C12.8914285,23.8068999 12.9022333,23.8029875 12.9078286,23.7952264 L12.9118235,23.7811639 L12.8776777,23.1665331 C12.8752882,23.1545897 12.8674102,23.1470016 12.8583906,23.1452862 L12.8583906,23.1452862 Z M12.1430473,23.1473072 C12.1332178,23.1423925 12.1221763,23.1452606 12.1156365,23.1525954 L12.1099173,23.1665331 L12.0757714,23.7811639 C12.0751323,23.7926639 12.0828099,23.8018602 12.0926481,23.8045676 L12.108256,23.8032389 L12.3092106,23.7104931 L12.3186497,23.7024347 L12.3186497,23.7024347 L12.3225043,23.6906389 L12.340401,23.2611114 L12.337245,23.2485176 L12.337245,23.2485176 L12.3277531,23.2396597 L12.1430473,23.1473072 Z" id="MingCute" fill-rule="nonzero"></path>
                <path d="M15,20 C15.5523,20 16,20.4477 16,21 C16,21.51285 15.613973,21.9355092 15.1166239,21.9932725 L15,22 L9,22 C8.44772,22 8,21.5523 8,21 C8,20.48715 8.38604429,20.0644908 8.88337975,20.0067275 L9,20 L15,20 Z M15,2 C15.51285,2 15.9355092,2.38604429 15.9932725,2.88337975 L16,3 L16,6 L18,6 C19.0543909,6 19.9181678,6.81587733 19.9945144,7.85073759 L20,8 L20,13 C20,16.2383886 17.434417,18.8775714 14.2249377,18.9958615 L14,19 L10,19 C6.76160159,19 4.12242817,16.434417 4.00413847,13.2249377 L4,13 L4,8 C4,6.94563773 4.81587733,6.08183483 5.85073759,6.00548573 L6,6 L8,6 L8,3 C8,2.44772 8.44772,2 9,2 C9.51283143,2 9.93550653,2.38604429 9.9932722,2.88337975 L10,3 L10,6 L14,6 L14,3 C14,2.44772 14.4477,2 15,2 Z M18,8 L6,8 L6,13 C6,15.1421576 7.68396753,16.8910766 9.80035957,16.9951046 L10,17 L14,17 C16.1421576,17 17.8910766,15.3159949 17.9951046,13.199637 L18,13 L18,8 Z" id="形状" fill="#09244B"></path>
            </g>
        </g>
    </g>
</svg>

<svg xmlns="http://www.w3.org/2000/svg" width="24" height="24"><g fill="none" fill-rule="evenodd"><path d="M24 0v24H0V0h24ZM12.593 23.258l-.011.002-.071.035-.02.004-.014-.004-.071-.035c-.01-.004-.019-.001-.024.005l-.004.01-.017.428.005.02.01.013.104.074.015.004.012-.004.104-.074.012-.016.004-.017-.017-.427c-.002-.01-.009-.017-.017-.018Zm.265-.113-.013.002-.185.093-.01.01-.003.011.018.43.005.012.008.007.201.093c.012.004.023 0 .029-.008l.004-.014-.034-.614c-.003-.012-.01-.02-.02-.022Zm-.715.002a.023.023 0 0 0-.027.006l-.006.014-.034.614c0 .012.007.02.017.024l.015-.002.201-.093.01-.008.004-.011.017-.43-.003-.012-.01-.01-.184-.092Z"/><path fill="#09244B" d="M15 20a1 1 0 0 1 .117 1.993L15 22H9a1 1 0 0 1-.117-1.993L9 20h6Zm0-18a1 1 0 0 1 .993.883L16 3v3h2a2 2 0 0 1 1.995 1.85L20 8v5a6 6 0 0 1-5.775 5.996L14 19h-4a6 6 0 0 1-5.996-5.775L4 13V8a2 2 0 0 1 1.85-1.995L6 6h2V3a1 1 0 0 1 1.993-.117L10 3v3h4V3a1 1 0 0 1 1-1Zm3 6H6v5a4 4 0 0 0 3.8 3.995L10 17h4a4 4 0 0 0 3.995-3.8L18 13V8Z"/></g></svg>
